src/assets/te-google-mailer.svg

<svg xmlns="http://www.w3.org/2000/svg" width="23" height="17" fill="none" viewBox="0 0 23 17"><g clip-path="url(#clip0)"><path fill="#4285F4" d="M5.22729 16.9163V8.20406L2.47133 5.73219L0 4.36047V15.3789C0 16.2296 0.703027 16.9163 1.56822 16.9163H5.22729Z"/><path fill="#34A853" d="M17.7729 16.9163H21.432C22.2998 16.9163 23.0002 16.2269 23.0002 15.3788V4.36047L20.2011 5.93161L17.7729 8.20397V16.9163Z"/><path fill="#EA4335" d="M5.22755 8.20399L4.85254 4.79985L5.22755 1.54175L11.5003 6.15412L17.773 1.54175L18.1925 4.62394L17.773 8.20399L11.5003 12.8164L5.22755 8.20399Z"/><path fill="#FBBC04" d="M17.7729 1.54178V8.20401L23.0002 4.36043V2.31048C23.0002 0.409206 20.7865 -0.674654 19.2367 0.465579L17.7729 1.54178Z"/><path fill="#C5221F" d="M0 4.36035L2.40413 6.12817L5.22729 8.20393V1.54169L3.76355 0.465497C2.21105 -0.674824 0 0.409124 0 2.31031V4.36026V4.36035Z"/></g><defs><clipPath id="clip0"><rect width="23" height="17" fill="#fff"/></clipPath></defs></svg>

<svg xmlns="http://www.w3.org/2000/svg" width="23" height="17" fill="none"><g clip-path="url(#a)"><path fill="#4285F4" d="M5.227 16.916V8.204L2.471 5.732 0 4.36v11.02c0 .85.703 1.537 1.568 1.537h3.66Z"/><path fill="#34A853" d="M17.773 16.916h3.659c.868 0 1.568-.69 1.568-1.537V4.36l-2.799 1.572-2.428 2.272v8.712Z"/><path fill="#EA4335" d="M5.228 8.204 4.853 4.8l.375-3.258L11.5 6.154l6.273-4.612.42 3.082-.42 3.58-6.273 4.612-6.272-4.612Z"/><path fill="#FBBC04" d="M17.773 1.542v6.662L23 4.36V2.31c0-1.9-2.213-2.985-3.763-1.844l-1.464 1.076Z"/><path fill="#C5221F" d="m0 4.36 2.404 1.768 2.823 2.076V1.542L3.764.465C2.21-.675 0 .41 0 2.31v2.05Z"/></g><defs><clipPath id="a"><path fill="#fff" d="M0 0h23v17H0z"/></clipPath></defs></svg>
